Origami/48x48/apps/babe.svg

<svg width="48" height="48" version="1" xmlns="http://www.w3.org/2000/svg">
 <path d="m16 8c-1.704135 0.0027-3.326745 0.72986-4.462891 2h-1.537109c-3.3135713 3.31e-4 -5.9996687 2.686429-6 6v13c3.313e-4 3.313571 2.6864287 5.999669 6 6h0.810547c1.07069 1.854245 3.048286 2.997485 5.189453 3h0.351562c0.846685 2.394256 3.108887 3.996258 5.648438 4h4c2.540268-0.0029 4.803467-1.60507 5.650391-4h0.349609c2.140468-0.0032 4.11716-1.146358 5.1875-3h0.8125c3.313571-3.31e-4 5.999669-2.686429 6-6v-13c-3.31e-4 -3.313571-2.686429-5.999669-6-6h-1.537109c-1.136146-1.27014-2.758756-1.9972964-4.462891-2h-4c-1.477073 0.0026-2.901294 0.5498937-4 1.5371094-1.098706-0.9872157-2.522927-1.5345117-4-1.5371094z" style="opacity:.2"/>
 <path d="m16 7c-1.704135 0.0027-3.326745 0.72986-4.462891 2h-1.537109c-3.3135713 3.313e-4 -5.9996687 2.686429-6 6v13c3.313e-4 3.313571 2.6864287 5.999669 6 6h0.810547c1.07069 1.854245 3.048286 2.997485 5.189453 3h0.351562c0.846685 2.394256 3.108887 3.996258 5.648438 4h4c2.540268-0.0029 4.803467-1.60507 5.650391-4h0.349609c2.140468-0.0032 4.11716-1.146358 5.1875-3h0.8125c3.313571-3.31e-4 5.999669-2.686429 6-6v-13c-3.31e-4 -3.313571-2.686429-5.9996687-6-6h-1.537109c-1.136146-1.27014-2.758756-1.9972964-4.462891-2h-4c-1.477073 0.0026-2.901294 0.5498937-4 1.5371094-1.098706-0.9872157-2.522927-1.5345117-4-1.5371094z" style="fill:#f85b79"/>
 <g transform="translate(3,-1)" style="opacity:.2">
  <path d="m7 17v3h4v-3h-4z"/>
  <path d="m7 22v3h4v-3h-4z"/>
  <path d="m7 27v3h4v-3h-4z"/>
  <path d="m13 15v3h4v-3h-4z"/>
  <path d="m13 20v3h4v-3h-4z"/>
  <path d="m13 25v3h4v-3h-4z"/>
  <path d="m13 30v3h4v-3h-4z"/>
  <path d="m19 19v3h4v-3h-4z"/>
  <path d="m19 24v3h4v-3h-4z"/>
  <path d="m19 29v3h4v-3h-4z"/>
  <path d="m19 34v3h4v-3h-4z"/>
  <path d="m35 17v3h-4v-3h4z"/>
  <path d="m35 22v3h-4v-3h4z"/>
  <path d="m35 27v3h-4v-3h4z"/>
  <path d="m29 15v3h-4v-3h4z"/>
  <path d="m29 20v3h-4v-3h4z"/>
  <path d="m29 25v3h-4v-3h4z"/>
  <path d="m29 30v3h-4v-3h4z"/>
 </g>
 <path d="m16 13v3h4v-3h-4zm12 0v3h4v-3h-4zm-18 2v3h4v-3h-4zm24 0v3h4v-3h-4zm-12 2v3h4v-3h-4zm-6 1v3h4v-3h-4zm12 0v3h4v-3h-4zm-18 2v3h4v-3h-4zm24 0v3h4v-3h-4zm-12 2v3h4v-3h-4zm-6 1v3h4v-3h-4zm12 0v3h4v-3h-4zm-18 2v3h4v-3h-4zm24 0v3h4v-3h-4zm-12 2v3h4v-3h-4zm-6 1v3h4v-3h-4zm12 0v3h4v-3h-4zm-6 4v3h4v-3h-4z" style="fill:#ffffff"/>
 <path d="m16 7c-1.704135 0.0027-3.326745 0.72986-4.462891 2h-1.537109c-3.3135713 3.313e-4 -5.9996687 2.686429-6 6v1c3.313e-4 -3.313571 2.6864287-5.999669 6-6h1.537109c1.136146-1.27014 2.758756-1.9973 4.462891-2h4c1.477073 0.0025977 2.901294 0.5498937 4 1.5371094 1.098706-0.9872157 2.522927-1.5345094 4-1.5371094h4c1.704135 0.0027036 3.326745 0.72986 4.462891 2h1.537109c3.313571 3.31e-4 5.999669 2.686429 6 6v-1c-3.31e-4 -3.313571-2.686429-5.9996687-6-6h-1.537109c-1.136146-1.27014-2.758756-1.9972964-4.462891-2h-4c-1.477073 0.0026-2.901294 0.5498937-4 1.5371094-1.098706-0.9872157-2.522927-1.5345117-4-1.5371094h-4z" style="fill:#ffffff;opacity:.29"/>
</svg>

<svg xmlns="http://www.w3.org/2000/svg" width="48" height="48" version="1">
 <path style="opacity:0.2" d="m 16,8 c -1.704135,0.0027 -3.326745,0.72986 -4.462891,2 H 10 c -3.3135713,3.31e-4 -5.9996687,2.686429 -6,6 v 13 c 3.313e-4,3.313571 2.6864287,5.999669 6,6 h 0.810547 c 1.07069,1.854245 3.048286,2.997485 5.189453,3 h 0.351562 C 17.198247,40.394256 19.460449,41.996258 22,42 h 4 c 2.540268,-0.0029 4.803467,-1.60507 5.650391,-4 H 32 c 2.140468,-0.0032 4.11716,-1.146358 5.1875,-3 H 38 c 3.313571,-3.31e-4 5.999669,-2.686429 6,-6 V 16 c -3.31e-4,-3.313571 -2.686429,-5.999669 -6,-6 H 36.462891 C 35.326745,8.72986 33.704135,8.0027036 32,8 H 28 C 26.522927,8.0026 25.098706,8.5498937 24,9.5371094 22.901294,8.5498937 21.477073,8.0025977 20,8 Z"/>
 <path style="fill:#f85b79" d="m 16,7 c -1.704135,0.0027 -3.326745,0.72986 -4.462891,2 H 10 c -3.3135713,3.313e-4 -5.9996687,2.686429 -6,6 v 13 c 3.313e-4,3.313571 2.6864287,5.999669 6,6 h 0.810547 c 1.07069,1.854245 3.048286,2.997485 5.189453,3 h 0.351562 C 17.198247,39.394256 19.460449,40.996258 22,41 h 4 c 2.540268,-0.0029 4.803467,-1.60507 5.650391,-4 H 32 c 2.140468,-0.0032 4.11716,-1.146358 5.1875,-3 H 38 c 3.313571,-3.31e-4 5.999669,-2.686429 6,-6 V 15 C 43.999669,11.686429 41.313571,9.0003313 38,9 H 36.462891 C 35.326745,7.72986 33.704135,7.0027036 32,7 h -4 c -1.477073,0.0026 -2.901294,0.5498937 -4,1.5371094 C 22.901294,7.5498937 21.477073,7.0025977 20,7 Z"/>
 <g style="opacity:0.2" transform="translate(3,-1)">
  <path d="m 7,17 c 0,1.000012 0,1.999988 0,3 1.333334,0 2.6666667,0 4,0 0,-1.000012 0,-1.999988 0,-3 -1.3333333,0 -2.666666,0 -4,0 z"/>
  <path d="m 7,22 c 0,1.000012 0,1.999988 0,3 1.333334,0 2.6666667,0 4,0 0,-1.000012 0,-1.999988 0,-3 -1.3333333,0 -2.666666,0 -4,0 z"/>
  <path d="m 7,27 c 0,1.000012 0,1.999988 0,3 1.333334,0 2.6666667,0 4,0 0,-1.000012 0,-1.999988 0,-3 -1.3333333,0 -2.666666,0 -4,0 z"/>
  <path d="m 13,15 c 0,1.000012 0,1.999988 0,3 1.333334,0 2.666667,0 4,0 0,-1.000012 0,-1.999988 0,-3 -1.333333,0 -2.666666,0 -4,0 z"/>
  <path d="m 13,20 c 0,1.000012 0,1.999988 0,3 1.333334,0 2.666667,0 4,0 0,-1.000012 0,-1.999988 0,-3 -1.333333,0 -2.666666,0 -4,0 z"/>
  <path d="m 13,25 c 0,1.000012 0,1.999988 0,3 1.333334,0 2.666667,0 4,0 0,-1.000012 0,-1.999988 0,-3 -1.333333,0 -2.666666,0 -4,0 z"/>
  <path d="m 13,30 c 0,1.000012 0,1.999988 0,3 1.333334,0 2.666667,0 4,0 0,-1.000012 0,-1.999988 0,-3 -1.333333,0 -2.666666,0 -4,0 z"/>
  <path d="m 19,19 c 0,1.000012 0,1.999988 0,3 1.333334,0 2.666667,0 4,0 0,-1.000012 0,-1.999988 0,-3 -1.333333,0 -2.666666,0 -4,0 z"/>
  <path d="m 19,24 c 0,1.000012 0,1.999988 0,3 1.333334,0 2.666667,0 4,0 0,-1.000012 0,-1.999988 0,-3 -1.333333,0 -2.666666,0 -4,0 z"/>
  <path d="m 19,29 c 0,1.000012 0,1.999988 0,3 1.333334,0 2.666667,0 4,0 0,-1.000012 0,-1.999988 0,-3 -1.333333,0 -2.666666,0 -4,0 z"/>
  <path d="m 19,34 c 0,1.000012 0,1.999988 0,3 1.333334,0 2.666667,0 4,0 0,-1.000012 0,-1.999988 0,-3 -1.333333,0 -2.666666,0 -4,0 z"/>
  <path d="m 35,17 c 0,1.000012 0,1.999988 0,3 -1.333334,0 -2.666667,0 -4,0 0,-1.000012 0,-1.999988 0,-3 1.333333,0 2.666666,0 4,0 z"/>
  <path d="m 35,22 c 0,1.000012 0,1.999988 0,3 -1.333334,0 -2.666667,0 -4,0 0,-1.000012 0,-1.999988 0,-3 1.333333,0 2.666666,0 4,0 z"/>
  <path d="m 35,27 c 0,1.000012 0,1.999988 0,3 -1.333334,0 -2.666667,0 -4,0 0,-1.000012 0,-1.999988 0,-3 1.333333,0 2.666666,0 4,0 z"/>
  <path d="m 29,15 c 0,1.000012 0,1.999988 0,3 -1.333334,0 -2.666667,0 -4,0 0,-1.000012 0,-1.999988 0,-3 1.333333,0 2.666666,0 4,0 z"/>
  <path d="m 29,20 c 0,1.000012 0,1.999988 0,3 -1.333334,0 -2.666667,0 -4,0 0,-1.000012 0,-1.999988 0,-3 1.333333,0 2.666666,0 4,0 z"/>
  <path d="m 29,25 c 0,1.000012 0,1.999988 0,3 -1.333334,0 -2.666667,0 -4,0 0,-1.000012 0,-1.999988 0,-3 1.333333,0 2.666666,0 4,0 z"/>
  <path d="m 29,30 c 0,1.000012 0,1.999988 0,3 -1.333334,0 -2.666667,0 -4,0 0,-1.000012 0,-1.999988 0,-3 1.333333,0 2.666666,0 4,0 z"/>
 </g>
 <path style="fill:#ffffff" d="M 16 13 L 16 16 L 20 16 L 20 13 L 16 13 z M 28 13 L 28 16 L 32 16 L 32 13 L 28 13 z M 10 15 L 10 18 L 14 18 L 14 15 L 10 15 z M 34 15 L 34 18 L 38 18 L 38 15 L 34 15 z M 22 17 L 22 20 L 26 20 L 26 17 L 22 17 z M 16 18 L 16 21 L 20 21 L 20 18 L 16 18 z M 28 18 L 28 21 L 32 21 L 32 18 L 28 18 z M 10 20 L 10 23 L 14 23 L 14 20 L 10 20 z M 34 20 L 34 23 L 38 23 L 38 20 L 34 20 z M 22 22 L 22 25 L 26 25 L 26 22 L 22 22 z M 16 23 L 16 26 L 20 26 L 20 23 L 16 23 z M 28 23 L 28 26 L 32 26 L 32 23 L 28 23 z M 10 25 L 10 28 L 14 28 L 14 25 L 10 25 z M 34 25 L 34 28 L 38 28 L 38 25 L 34 25 z M 22 27 L 22 30 L 26 30 L 26 27 L 22 27 z M 16 28 L 16 31 L 20 31 L 20 28 L 16 28 z M 28 28 L 28 31 L 32 31 L 32 28 L 28 28 z M 22 32 L 22 35 L 26 35 L 26 32 L 22 32 z"/>
 <path style="opacity:0.29;fill:#ffffff" d="M 16 7 C 14.295865 7.0027 12.673255 7.72986 11.537109 9 L 10 9 C 6.6864287 9.0003313 4.0003313 11.686429 4 15 L 4 16 C 4.0003313 12.686429 6.6864287 10.000331 10 10 L 11.537109 10 C 12.673255 8.72986 14.295865 8.0027 16 8 L 20 8 C 21.477073 8.0025977 22.901294 8.5498937 24 9.5371094 C 25.098706 8.5498937 26.522927 8.0026 28 8 L 32 8 C 33.704135 8.0027036 35.326745 8.72986 36.462891 10 L 38 10 C 41.313571 10.000331 43.999669 12.686429 44 16 L 44 15 C 43.999669 11.686429 41.313571 9.0003313 38 9 L 36.462891 9 C 35.326745 7.72986 33.704135 7.0027036 32 7 L 28 7 C 26.522927 7.0026 25.098706 7.5498937 24 8.5371094 C 22.901294 7.5498937 21.477073 7.0025977 20 7 L 16 7 z"/>
</svg>
